;FLAVOR:Marlin
;TIME:5621
;Filament used: 4.1017m
;Layer height: 0.2
;MINX:79.141
;MINY:89.141
;MINZ:0.25
;MAXX:155.859
;MAXY:145.859
;MAXZ:9.45
;Generated with Cura_SteamEngine 4.8.0
M140 S60
M105
M190 S60
M104 S205
M105
M109 S205
M82 ;absolute extrusion mode
; Script based on an original created by tjjfvi (https://github.com/tjjfvi)
; An up-to-date version of the tjjfvi's original script can be found
; here:  https://csi.t6.fyi/
; Note - This script will only work in Cura V4.2 and above!
; --- Global Settings
; layer_height = 0.2
; smooth_spiralized_contours = True
; magic_mesh_surface_mode = normal
; machine_extruder_count = 1
; --- Single Extruder Settings
; speed_z_hop = 10
; retraction_amount = 5
; retraction_hop = 0.25
; retraction_hop_enabled = False
; retraction_enable = True
; retraction_speed = 45
; retraction_retract_speed = 45
; retraction_prime_speed = 45
; speed_travel = 70

G28 ;home
G92 E0 ;Reset Extruder
G1 Z4.0 F3000 ;Move Z Axis up
G92 E0 ;Reset Extruder
G1 X1.1 Y20 Z0.28 F5000.0 ;Move to start position
G1 X1.1 Y80.0 Z0.28 F1500.0 E10 ;Draw the first line
G1 X1.4 Y80.0 Z0.28 F5000.0 ;Move to side a little
G1 X1.4 Y20 Z0.28 F1500.0 E20 ;Draw the second line
G92 E0 ;Reset Extruder
G1 Z2.0 F3000 ;Move Z Axis up
G92 E0
G92 E0
G1 F2700 E-5
;LAYER_COUNT:47
;LAYER:0
M107
G0 F2100 X81.665 Y90.7 Z0.25
;TYPE:SKIRT
G1 F2700 E0
G1 F1500 X82.14 Y90.344 E0.02468
G1 X82.705 Y90.002 E0.05214
G1 X83.303 Y89.708 E0.07984
G1 X83.9 Y89.483 E0.10637
G1 X84.448 Y89.333 E0.12999
G1 X85.177 Y89.204 E0.16077
G1 X85.827 Y89.155 E0.18787
G1 X86.332 Y89.141 E0.20887
G1 X148.341 Y89.141 E2.78691
G1 X148.857 Y89.151 E2.80836
G1 X149.642 Y89.189 E2.84104
G1 X150.519 Y89.328 E2.87795
G1 X151.204 Y89.522 E2.90755
G1 X151.99 Y89.842 E2.94283
G1 X152.54 Y90.14 E2.96884
G1 X153.107 Y90.525 E2.99734
G1 X153.602 Y90.931 E3.02395
G1 X154.048 Y91.373 E3.05006
G1 X154.467 Y91.882 E3.07747
G1 X154.854 Y92.448 E3.10597
G1 X155.143 Y92.977 E3.13104
G1 X155.408 Y93.599 E3.15914
G1 X155.617 Y94.235 E3.18698
G1 X155.743 Y94.815 E3.21165
G1 X155.826 Y95.517 E3.24104
G1 X155.859 Y96.249 E3.27151
G1 X155.859 Y138.341 E5.02149
G1 X155.849 Y138.854 E5.04282
G1 X155.811 Y139.641 E5.07558
G1 X155.672 Y140.519 E5.11254
G1 X155.477 Y141.205 E5.14219
G1 X155.161 Y141.984 E5.17714
G1 X154.864 Y142.535 E5.20316
G1 X154.476 Y143.106 E5.23186
G1 X154.073 Y143.598 E5.2583
G1 X153.607 Y144.066 E5.28576
G1 X153.124 Y144.462 E5.31173
G1 X152.551 Y144.854 E5.34059
G1 X152.023 Y145.143 E5.36562
G1 X151.401 Y145.408 E5.39373
G1 X150.724 Y145.626 E5.42329
G1 X150.181 Y145.744 E5.4464
G1 X149.471 Y145.827 E5.47612
G1 X148.668 Y145.859 E5.50953
G1 X86.659 Y145.859 E8.08756
G1 X86.144 Y145.849 E8.10898
G1 X85.358 Y145.811 E8.14169
G1 X84.481 Y145.672 E8.17861
G1 X83.796 Y145.478 E8.20821
G1 X83.011 Y145.159 E8.24344
G1 X82.456 Y144.858 E8.26969
G1 X81.89 Y144.473 E8.29815
G1 X81.39 Y144.062 E8.32506
G1 X80.931 Y143.604 E8.35201
G1 X80.533 Y143.118 E8.37813
G1 X80.141 Y142.543 E8.40706
G1 X79.851 Y142.011 E8.43225
G1 X79.591 Y141.4 E8.45986
G1 X79.384 Y140.764 E8.48767
G1 X79.256 Y140.182 E8.51244
G1 X79.172 Y139.462 E8.54258
G1 X79.141 Y138.668 E8.57562
G1 X79.141 Y96.652 E10.32244
G1 X79.151 Y96.131 E10.3441
G1 X79.189 Y95.356 E10.37636
G1 X79.328 Y94.481 E10.4132
G1 X79.502 Y93.842 E10.44073
G1 X79.695 Y93.332 E10.4634
G1 X79.984 Y92.739 E10.49083
G1 X80.335 Y92.155 E10.51915
G1 X80.701 Y91.663 E10.54465
G1 X81.159 Y91.162 E10.57287
G1 X81.665 Y90.7 E10.60136
G1 F2700 E5.60136
;MESH:ATMega328P-AU Bootloader Burn Base.stl
G0 F2100 X81.678 Y95.954
G0 X82.76 Y96.028
G0 X83.538 Y139.348
G0 X83.734 Y140.023
G0 X84.119 Y140.628
G0 X85.621 Y141.63
;TYPE:WALL-INNER
G1 F2700 E10.60136
G1 F1200 X85.244 Y141.547 E10.61741
G1 X84.906 Y141.422 E10.63239
G1 X84.555 Y141.229 E10.64904
G1 X84.261 Y141.01 E10.66428
G1 X83.99 Y140.739 E10.68022
G1 X83.771 Y140.445 E10.69546
G1 X83.578 Y140.094 E10.71211
G1 X83.451 Y139.753 E10.72724
G1 X83.369 Y139.375 E10.74332
G1 X83.34 Y138.971 E10.76016
G1 X83.341 Y96.04 E12.54502
G1 X83.37 Y95.621 E12.56249
G1 X83.453 Y95.244 E12.57854
G1 X83.578 Y94.906 E12.59352
G1 X83.771 Y94.555 E12.61017
G1 X83.99 Y94.261 E12.62541
G1 X84.261 Y93.99 E12.64135
G1 X84.555 Y93.771 E12.65659
G1 X84.906 Y93.578 E12.67324
G1 X85.247 Y93.451 E12.68837
G1 X85.625 Y93.369 E12.70445
G1 X86.029 Y93.34 E12.72129
G1 X148.96 Y93.341 E15.33766
G1 X149.379 Y93.37 E15.35512
G1 X149.756 Y93.453 E15.37117
G1 X150.094 Y93.578 E15.38615
G1 X150.445 Y93.771 E15.4028
G1 X150.739 Y93.99 E15.41805
G1 X151.01 Y94.261 E15.43398
G1 X151.229 Y94.555 E15.44922
G1 X151.422 Y94.906 E15.46587
G1 X151.549 Y95.247 E15.481
G1 X151.631 Y95.625 E15.49708
G1 X151.66 Y96.026 E15.5138
G1 X151.659 Y138.957 E17.29866
G1 X151.63 Y139.378 E17.31621
G1 X151.547 Y139.756 E17.3323
G1 X151.422 Y140.094 E17.34728
G1 X151.229 Y140.445 E17.36393
G1 X151.01 Y140.739 E17.37917
G1 X150.739 Y141.01 E17.39511
G1 X150.445 Y141.229 E17.41035
G1 X150.094 Y141.422 E17.427
G1 X149.753 Y141.549 E17.44213
G1 X149.375 Y141.631 E17.45821
G1 X148.971 Y141.66 E17.47505
G1 X86.04 Y141.659 E20.09142
G1 X85.621 Y141.63 E20.10888
G0 F2100 X85.562 Y142.027
G1 F1200 X85.134 Y141.933 E20.1271
G1 X84.735 Y141.785 E20.14479
G1 X84.34 Y141.568 E20.16353
G1 X83.998 Y141.313 E20.18127
G1 X83.687 Y141.002 E20.19955
G1 X83.432 Y140.66 E20.21729
G1 X83.215 Y140.265 E20.23602
G1 X83.066 Y139.864 E20.25381
G1 X82.972 Y139.433 E20.27215
G1 X82.94 Y138.986 E20.29078
G1 X82.941 Y96.026 E22.07685
G1 X82.973 Y95.562 E22.09619
G1 X83.067 Y95.134 E22.11441
G1 X83.215 Y94.735 E22.1321
G1 X83.432 Y94.34 E22.15084
G1 X83.687 Y93.998 E22.16857
G1 X83.998 Y93.687 E22.18686
G1 X84.34 Y93.432 E22.20459
G1 X84.735 Y93.215 E22.22333
G1 X85.136 Y93.066 E22.24112
G1 X85.567 Y92.972 E22.25946
G1 X86.014 Y92.94 E22.27809
G1 X148.974 Y92.941 E24.89566
G1 X149.438 Y92.973 E24.915
G1 X149.866 Y93.067 E24.93322
G1 X150.265 Y93.215 E24.95091
G1 X150.66 Y93.432 E24.96965
G1 X151.002 Y93.687 E24.98738
G1 X151.313 Y93.998 E25.00567
G1 X151.568 Y94.34 E25.0234
G1 X151.785 Y94.735 E25.04214
G1 X151.934 Y95.136 E25.05993
G1 X152.028 Y95.567 E25.07827
G1 X152.06 Y96.014 E25.0969
G1 X152.059 Y138.972 E26.88288
G1 X152.027 Y139.438 E26.9023
G1 X151.933 Y139.866 E26.92052
G1 X151.785 Y140.265 E26.93821
G1 X151.568 Y140.66 E26.95695
G1 X151.313 Y141.002 E26.97469
G1 X151.002 Y141.313 E26.99297
G1 X150.66 Y141.568 E27.01071
G1 X150.265 Y141.785 E27.02945
G1 X149.864 Y141.934 E27.04723
G1 X149.433 Y142.028 E27.06557
G1 X148.986 Y142.06 E27.0842
G1 X86.026 Y142.059 E29.70178
G1 X85.562 Y142.027 E29.72111
G0 F2100 X85.502 Y142.424
;TYPE:WALL-OUTER
G1 F1200 X85.024 Y142.319 E29.74146
G1 X84.567 Y142.149 E29.76173
G1 X84.127 Y141.908 E29.78259
G1 X83.731 Y141.612 E29.80314
G1 X83.388 Y141.269 E29.82331
G1 X83.092 Y140.873 E29.84387
G1 X82.851 Y140.433 E29.86472
G1 X82.681 Y139.976 E29.88499
G1 X82.575 Y139.491 E29.90563
G1 X82.54 Y139 E29.9261
G1 X82.541 Y96.014 E31.71325
G1 X82.576 Y95.502 E31.73459
G1 X82.681 Y95.024 E31.75493
G1 X82.851 Y94.567 E31.7752
G1 X83.092 Y94.127 E31.79606
G1 X83.388 Y93.731 E31.81662
G1 X83.731 Y93.388 E31.83678
G1 X84.127 Y93.092 E31.85734
G1 X84.567 Y92.851 E31.8782
G1 X85.024 Y92.681 E31.89847
G1 X85.509 Y92.575 E31.91911
G1 X86 Y92.54 E31.93957
G1 X148.986 Y92.541 E34.55823
G1 X149.498 Y92.576 E34.57956
G1 X149.976 Y92.681 E34.59991
G1 X150.433 Y92.851 E34.62018
G1 X150.873 Y93.092 E34.64104
G1 X151.269 Y93.388 E34.66159
G1 X151.612 Y93.731 E34.68176
G1 X151.908 Y94.127 E34.70232
G1 X152.149 Y94.567 E34.72317
G1 X152.319 Y95.024 E34.74344
G1 X152.425 Y95.509 E34.76408
G1 X152.46 Y96 E34.78455
G1 X152.459 Y138.986 E36.5717
G1 X152.424 Y139.498 E36.59304
G1 X152.319 Y139.976 E36.61338
G1 X152.149 Y140.433 E36.63365
G1 X151.908 Y140.873 E36.65451
G1 X151.612 Y141.269 E36.67507
G1 X151.269 Y141.612 E36.69523
G1 X150.873 Y141.908 E36.71579
G1 X150.433 Y142.149 E36.73665
G1 X149.976 Y142.319 E36.75692
G1 X149.491 Y142.425 E36.77756
G1 X149 Y142.46 E36.79802
G1 X86.014 Y142.459 E39.41668
G1 X85.502 Y142.424 E39.43801
G0 F2100 X85.307 Y142.382
G0 X85.402 Y141.952
G0 X85.671 Y141.242
;TYPE:SKIN
G1 F1200 X85.064 Y141.065 E39.4643
G1 X84.517 Y140.716 E39.49128
G1 X84.101 Y140.238 E39.51762
G1 X83.827 Y139.646 E39.54474
G1 X83.73 Y138.957 E39.57367
G1 X83.731 Y96.067 E41.35683
G1 X83.758 Y95.671 E41.37333
G1 X83.935 Y95.064 E41.39962
G1 X84.284 Y94.517 E41.42659
G1 X84.762 Y94.101 E41.45294
G1 X85.354 Y93.827 E41.48006
G1 X86.043 Y93.73 E41.50899
G1 X148.933 Y93.731 E44.12365
G1 X149.329 Y93.758 E44.14015
G1 X149.936 Y93.935 E44.16644
G1 X150.483 Y94.284 E44.19342
G1 X150.899 Y94.762 E44.21976
G1 X151.173 Y95.354 E44.24688
G1 X151.27 Y96.04 E44.27569
G1 X151.269 Y138.93 E46.05884
G1 X151.242 Y139.328 E46.07543
G1 X151.065 Y139.936 E46.10176
G1 X150.716 Y140.483 E46.12873
G1 X150.238 Y140.899 E46.15508
G1 X149.646 Y141.173 E46.1822
G1 X148.957 Y141.27 E46.21113
G1 X86.067 Y141.269 E48.82579
G1 X85.671 Y141.242 E48.84229
G0 F2100 X85.593 Y141.031
G1 F1200 X83.976 Y139.413 E48.93739
G0 F2100 X83.91 Y138.781
G1 F1200 X86.216 Y141.088 E49.07301
G0 F2100 X86.782 Y141.088
G1 F1200 X83.91 Y138.216 E49.24187
G0 F2100 X83.91 Y137.65
G1 F1200 X87.348 Y141.088 E49.44401
G0 F2100 X87.913 Y141.088
G1 F1200 X83.91 Y137.084 E49.6794
G0 F2100 X83.91 Y136.518
G1 F1200 X88.479 Y141.088 E49.94807
G0 F2100 X89.045 Y141.088
G1 F1200 X83.91 Y135.953 E50.24999
G0 F2100 X83.91 Y135.387
G1 F1200 X89.61 Y141.088 E50.58516
G0 F2100 X90.176 Y141.088
G1 F1200 X83.91 Y134.821 E50.9536
G0 F2100 X83.91 Y134.256
G1 F1200 X90.742 Y141.088 E51.3553
G0 F2100 X91.307 Y141.088
G1 F1200 X83.91 Y133.69 E51.79024
G0 F2100 X83.91 Y133.124
G1 F1200 X91.873 Y141.088 E52.25847
G0 F2100 X92.439 Y141.088
G1 F1200 X83.91 Y132.559 E52.75994
G0 F2100 X83.91 Y131.993
G1 F1200 X93.005 Y141.088 E53.29469
G0 F2100 X93.57 Y141.088
G1 F1200 X83.91 Y131.427 E53.86269
G0 F2100 X83.91 Y130.862
G1 F1200 X94.136 Y141.088 E54.46394
G0 F2100 X94.702 Y141.088
G1 F1200 X83.91 Y130.296 E55.09847
G0 F2100 X83.91 Y129.73
G1 F1200 X95.267 Y141.088 E55.76625
G0 F2100 X95.833 Y141.088
G1 F1200 X83.91 Y129.165 E56.46727
G0 F2100 X83.91 Y128.599
G1 F1200 X96.399 Y141.088 E57.20158
G0 F2100 X96.964 Y141.088
G1 F1200 X83.91 Y128.033 E57.96913
G0 F2100 X83.91 Y127.468
G1 F1200 X97.53 Y141.088 E58.76994
G0 F2100 X98.096 Y141.088
G1 F1200 X83.91 Y126.902 E59.60402
G0 F2100 X83.91 Y126.336
G1 F1200 X98.661 Y141.088 E60.47135
G0 F2100 X99.227 Y141.088
G1 F1200 X83.91 Y125.77 E61.37196
G0 F2100 X83.91 Y125.205
G1 F1200 X99.793 Y141.088 E62.30582
G0 F2100 X100.358 Y141.088
G1 F1200 X83.91 Y124.639 E63.27293
G0 F2100 X83.91 Y124.073
G1 F1200 X100.924 Y141.088 E64.27332
G0 F2100 X101.49 Y141.088
G1 F1200 X83.91 Y123.508 E65.30695
G0 F2100 X83.91 Y122.942
G1 F1200 X102.056 Y141.088 E66.37387
G0 F2100 X102.621 Y141.088
G1 F1200 X83.91 Y122.376 E67.47403
G0 F2100 X83.91 Y121.811
G1 F1200 X103.187 Y141.088 E68.60745
G0 F2100 X103.753 Y141.088
G1 F1200 X83.91 Y121.245 E69.77414
G0 F2100 X83.91 Y120.679
G1 F1200 X104.318 Y141.088 E70.97408
G0 F2100 X104.884 Y141.088
G1 F1200 X83.91 Y120.114 E72.20727
G0 F2100 X83.91 Y119.548
G1 F1200 X105.45 Y141.088 E73.47374
G0 F2100 X106.015 Y141.088
G1 F1200 X83.91 Y118.982 E74.77346
G0 F2100 X83.91 Y118.417
G1 F1200 X106.581 Y141.088 E76.10643
G0 F2100 X107.147 Y141.089
G1 F1200 X83.91 Y117.851 E77.4727
G0 F2100 X83.91 Y117.285
G1 F1200 X107.713 Y141.089 E78.87226
G0 F2100 X108.279 Y141.089
G1 F1200 X83.91 Y116.719 E80.30509
G0 F2100 X83.91 Y116.154
G1 F1200 X108.844 Y141.089 E81.77114
G0 F2100 X109.41 Y141.089
G1 F1200 X83.91 Y115.588 E83.27048
G0 F2100 X83.91 Y115.022
G1 F1200 X109.976 Y141.089 E84.80309
G0 F2100 X110.542 Y141.089
G1 F1200 X83.91 Y114.457 E86.36894
G0 F2100 X83.91 Y113.891
G1 F1200 X111.107 Y141.089 E87.96805
G0 F2100 X111.673 Y141.089
G1 F1200 X83.91 Y113.325 E89.60044
G0 F2100 X83.91 Y112.76
G1 F1200 X112.239 Y141.089 E91.26608
G0 F2100 X112.804 Y141.089
G1 F1200 X83.91 Y112.194 E92.96496
G0 F2100 X83.91 Y111.628
G1 F1200 X113.37 Y141.089 E94.69713
G0 F2100 X113.936 Y141.089
G1 F1200 X83.91 Y111.063 E96.46254
G0 F2100 X83.91 Y110.497
G1 F1200 X114.501 Y141.089 E98.2612
G0 F2100 X115.067 Y141.089
G1 F1200 X83.91 Y109.931 E100.09315
G0 F2100 X83.91 Y109.366
G1 F1200 X115.633 Y141.089 E101.95834
G0 F2100 X116.198 Y141.089
G1 F1200 X83.91 Y108.8 E103.85678
G0 F2100 X83.91 Y108.234
G1 F1200 X116.764 Y141.089 E105.7885
G0 F2100 X117.33 Y141.089
G1 F1200 X83.91 Y107.669 E107.75346
G0 F2100 X83.91 Y107.103
G1 F1200 X117.895 Y141.089 E109.75168
G0 F2100 X118.461 Y141.089
G1 F1200 X83.91 Y106.537 E111.78318
G0 F2100 X83.91 Y105.971
G1 F1200 X119.027 Y141.089 E113.84795
G0 F2100 X119.592 Y141.089
G1 F1200 X83.91 Y105.406 E115.94595
G0 F2100 X83.91 Y104.84
G1 F1200 X120.158 Y141.089 E118.07722
G0 F2100 X120.724 Y141.089
G1 F1200 X83.91 Y104.274 E120.24177
G0 F2100 X83.91 Y103.709
G1 F1200 X121.29 Y141.089 E122.43957
G0 F2100 X121.855 Y141.089
G1 F1200 X83.91 Y103.143 E124.67062
G0 F2100 X83.91 Y102.577
G1 F1200 X122.421 Y141.089 E126.93495
G0 F2100 X122.987 Y141.089
G1 F1200 X83.91 Y102.012 E129.23253
G0 F2100 X83.91 Y101.446
G1 F1200 X123.552 Y141.089 E131.56335
G0 F2100 X124.118 Y141.089
G1 F1200 X83.91 Y100.88 E133.92746
G0 F2100 X83.91 Y100.315
G1 F1200 X124.684 Y141.089 E136.32481
G0 F2100 X125.249 Y141.089
G1 F1200 X83.91 Y99.749 E138.75542
G0 F2100 X83.91 Y99.183
G1 F1200 X125.815 Y141.089 E141.2193
G0 F2100 X126.381 Y141.089
G1 F1200 X83.91 Y98.618 E143.71643
G0 F2100 X83.91 Y98.052
G1 F1200 X126.946 Y141.089 E146.24682
G0 F2100 X127.512 Y141.089
G1 F1200 X83.91 Y97.486 E148.81047
G0 F2100 X83.91 Y96.921
G1 F1200 X128.078 Y141.089 E151.40738
G0 F2100 X128.644 Y141.089
G1 F1200 X83.91 Y96.355 E154.03757
G0 F2100 X83.929 Y95.808
G1 F1200 X129.21 Y141.089 E156.69992
G0 F2100 X129.776 Y141.089
G1 F1200 X84.037 Y95.351 E159.38917
G0 F2100 X84.213 Y94.961
G1 F1200 X130.341 Y141.089 E162.10132
G0 F2100 X130.907 Y141.089
G1 F1200 X84.439 Y94.621 E164.83346
G0 F2100 X84.741 Y94.357
G1 F1200 X131.473 Y141.089 E167.58112
G0 F2100 X132.038 Y141.089
G1 F1200 X85.094 Y94.145 E170.34125
G0 F2100 X85.502 Y93.987
G1 F1200 X132.604 Y141.089 E173.11067
G0 F2100 X133.17 Y141.089
G1 F1200 X85.998 Y93.917 E175.8842
G0 F2100 X86.556 Y93.91
G1 F1200 X133.735 Y141.089 E178.65814
G0 F2100 X134.301 Y141.089
G1 F1200 X87.121 Y93.91 E181.43212
G0 F2100 X87.687 Y93.91
G1 F1200 X134.867 Y141.089 E184.20609
G0 F2100 X135.432 Y141.089
G1 F1200 X88.253 Y93.91 E186.98004
G0 F2100 X88.818 Y93.91
G1 F1200 X135.998 Y141.089 E189.75401
G0 F2100 X136.564 Y141.089
G1 F1200 X89.384 Y93.91 E192.52798
G0 F2100 X89.95 Y93.91
G1 F1200 X137.129 Y141.089 E195.30193
G0 F2100 X137.695 Y141.089
G1 F1200 X90.516 Y93.91 E198.07587
G0 F2100 X91.081 Y93.91
G1 F1200 X138.261 Y141.089 E200.84985
G0 F2100 X138.826 Y141.089
G1 F1200 X91.647 Y93.91 E203.62379
G0 F2100 X92.213 Y93.91
G1 F1200 X139.392 Y141.089 E206.39773
G0 F2100 X139.958 Y141.089
G1 F1200 X92.778 Y93.91 E209.17171
G0 F2100 X93.344 Y93.91
G1 F1200 X140.524 Y141.089 E211.94568
G0 F2100 X141.089 Y141.089
G1 F1200 X93.91 Y93.91 E214.71963
G0 F2100 X94.475 Y93.91
G1 F1200 X141.655 Y141.089 E217.4936
G0 F2100 X142.221 Y141.089
G1 F1200 X95.041 Y93.91 E220.26757
G0 F2100 X95.607 Y93.91
G1 F1200 X142.786 Y141.089 E223.04152
G0 F2100 X143.352 Y141.089
G1 F1200 X96.172 Y93.91 E225.81549
G0 F2100 X96.738 Y93.91
G1 F1200 X143.918 Y141.089 E228.58947
G0 F2100 X144.483 Y141.089
G1 F1200 X97.304 Y93.91 E231.36341
G0 F2100 X97.869 Y93.91
G1 F1200 X145.049 Y141.089 E234.13738
G0 F2100 X145.615 Y141.089
G1 F1200 X98.435 Y93.91 E236.91136
G0 F2100 X99.001 Y93.91
G1 F1200 X146.18 Y141.089 E239.6853
G0 F2100 X146.746 Y141.089
G1 F1200 X99.566 Y93.91 E242.45928
G0 F2100 X100.132 Y93.91
G1 F1200 X147.312 Y141.089 E245.23325
G0 F2100 X147.877 Y141.089
G1 F1200 X100.698 Y93.91 E248.00719
G0 F2100 X101.264 Y93.91
G1 F1200 X148.443 Y141.089 E250.78114
G0 F2100 X149.001 Y141.081
G1 F1200 X101.829 Y93.91 E253.55464
G0 F2100 X102.395 Y93.91
G1 F1200 X149.496 Y141.011 E256.324
